X: 28864
T: Mympwy Portheinon
R: hornpipe
M: 4/4
K: Gmajor
|:d>c|B2 B>c d>ed>c|B2 (3ABc d>ed>c|B2 G2 G>Ac>B|(3ABA D2 D2 (3edc|
B2- B>c d2 d>c|B>^AB>c d>ed>c|(3Bcd G>B (3ABc F>A|G2 G>F G2:|
|:(3Bcd|g>fg>a g>dB>d|g2 g>a g>d (3Bcd|g>fg>a b2- b>g|f>^ef>g a>fd3/2[B/f/]|
e>^de>f g>ec3/2[A/e/]|d>^cd>e d>B (3GAB|(3ABA A>B c>A (3FGA|(3GAG [F2B2] G2:|

